src/components/Icon/utils/svgsOptimized/code.svg

<svg width="24" height="24" viewBox="0 0 24 24"  xmlns="http://www.w3.org/2000/svg">
<path d="M9.409 17.4139L13.1684 6.11275C13.2329 5.91885 13.4424 5.81395 13.6363 5.87845L14.3574 6.11835C14.5513 6.18285 14.6562 6.39232 14.5917 6.58622L10.8323 17.8873C10.7678 18.0812 10.5583 18.1861 10.3644 18.1216L9.64329 17.8817C9.44939 17.8172 9.34449 17.6078 9.409 17.4139Z" />
<path d="M8.51999 15.3486L8.90999 14.9586C9.00999 14.8586 9.01999 14.6986 8.91999 14.5886L6.61999 12.0086L8.91999 9.42861C9.01999 9.31861 9.00999 9.15861 8.90999 9.05861L8.51999 8.66861C8.40999 8.55861 8.23999 8.55861 8.13999 8.66861L4.79999 12.0086L8.13999 15.3486C8.24999 15.4586 8.41999 15.4586 8.51999 15.3486Z" />
<path d="M15.48 15.3486L15.09 14.9586C14.99 14.8586 14.98 14.6986 15.08 14.5886L17.38 12.0086L15.08 9.42861C14.98 9.31861 14.99 9.15861 15.09 9.05861L15.48 8.66861C15.59 8.55861 15.76 8.55861 15.86 8.66861L19.2 12.0086L15.86 15.3486C15.75 15.4586 15.58 15.4586 15.48 15.3486Z" />
</svg>

<?xml version="1.0" encoding="utf-8"?><svg width="24" height="24" xmlns="http://www.w3.org/2000/svg" viewBox="0 0 24 24"><path d="m9.409 17.414 3.76-11.301a.37.37 0 0 1 .467-.235l.721.24a.37.37 0 0 1 .235.468l-3.76 11.301a.37.37 0 0 1-.468.235l-.72-.24a.37.37 0 0 1-.235-.468Zm-.889-2.065.39-.39c.1-.1.11-.26.01-.37l-2.3-2.58 2.3-2.58c.1-.11.09-.27-.01-.37l-.39-.39a.26.26 0 0 0-.38 0l-3.34 3.34 3.34 3.34c.11.11.28.11.38 0Zm6.96 0-.39-.39c-.1-.1-.11-.26-.01-.37l2.3-2.58-2.3-2.58c-.1-.11-.09-.27.01-.37l.39-.39a.26.26 0 0 1 .38 0l3.34 3.34-3.34 3.34a.26.26 0 0 1-.38 0Z"/></svg>
